X:1
T:Jig Runrig
C:Fergie MacDonald
B:Fergie's Collection (1998)
Z:Nigel Gatherer, chords by John Chambers
M:6/8
R:Jig
L:1/8
K:D
f/e/ \
| "D"d2d       BAA | "D"FAA    BAA | "G"Bdd "D/F#"Add |"E7"fee "A"efe \
| "D"d2d       BAA | "D"FAA    BAA | "G"Bdd "D"   Aff | "A"edd "D"d2 :|
g \
| "D"faa    "A"eaa | "D"daa "A"caa | "G"Bdd "D/F#"Add |"E7"fee "A"e2g \
| "D"faa    "A"eaa | "D"daa "A"caa | "G"Bdd "D"   Aff | "A"edd "D"d2 ||
g \
| "D"faa "A/C#"eaa |"Bm"daa "A"caa | "G"Bdd "D/F#"Add |"E7"fee "A"efe \
| "D"d2d       BAA | "D"FAA    BAA | "G"Bdd "D"   Aff | "A"edd "D"d2 |]
